X: 100433
T: GENERAL GORDON'S HORNPIPE
C: By W. Findlay, Broxburn
R: hornpipe
B: K\"ohler's Violin Repository, v.3, 1885 p.275 #2
F: http://www.archive.org/details/klersviolinrepos03rugg
Z: 2012 John Chambers <jc:trillian.mit.edu>
M: C|
L: 1/8
K: A
(uab) |\
(c'>a)e>c (A>a)g>a | (f>e)d>c B2e>d | (c>e)a>c (d>f)b>a | (g>b)a>f e2a>b |
(c'>a)e>c (A>a)g>a | (f>e)d>c B2e>d | (c>a)g>a (f>d)B>G | B2A2 A2 :||: (ue>d) |
.c>(ae>c) ((3Ace) ((3Ace) | .d>(af>d) ((3Bdf) ((3Bdf) | (e>a)g>b (a>f)^d>f | (e>^d)e>f e2e>=d |
.c>(ae>c) ((3Ace) ((3Ace) | .d>(af>d) ((3Bdf) ((3Bdf) | (e>a)g>f ((3efe (3dcB) | A2{g}a2 A2 :|

%%sep 2 1 500

